X:0972
T:The Honble. Mrs Gray's Strathsy.
M:C
L:1/8
Q:1/4=120
N:printed version uses a variant repeat in first part, [1 A<Fd>G ADFd :|[2 A<Fd>B ADFB||
I: (1) :: (2) || ||
Z:Jack Campin * www.campin.me.uk * 2009
K:D
d|A>Bd>e f/e/d/c/ d2| A>Bd>e    eEG<B | ABde    (f/e/).d/.c/ (.d>.B)|A<Fd>G       AD`F  :|
B|AFdF   fFAF       |(AF)(.d.B) AEGB  |(AF)dB  (.f>.d)````````(ce)  |d>AB<d       FD`F<d |
  AFd>F  fFAF       | Adc<d     e>EG<B|(AE)(f>d) e>c```````````d>B  |c>d c/d/e/c/ d>dF<d|]

